X: 6814
T: Charlie And The Professor
R: reel
M: 4/4
K: Dmajor
d3 A FGBd|cAed cBAG|FABF GABd|cdef e2 de|
fgfd B3 c|efec AGFE|DEFD EFGB|1 Adef ef d2:|2 Adef efdA||
|:B2 dc B3 =c|cced cB A2|Bdfe fedf|efed cdeg|
fdgd fdBd|cAeA fAeg|fedc dcBA|1 Bdef efdA:|2 Bdef ef d2||

